!!!SOCIAL_FUNCTION:	songs with hunting dance
!!!PDT:	1956
!!!OTL: No_58_Calusa_Hunting_Dance_Song_(b).krn
!!!LANG: Non-Tone
!!!LING_GROUP: Muskogean
!!!REG: Florida
**kern
*staff1
=1-
*clefF4
*k[b-e-a-]
*M3/4
2B-\
8c\L
8B-\J
=2
2B-\
8.A-\L
16E-\Jk
=3
8E-\L
8E-\J
2E-\
=4
2F\
4F\
=5
2E-\
8.C/L
16BB-/Jk
=6
8BB-/L
8BB-/J
2BB-/
=7
2C/
4C/
=8||
*M2/4
4BB-/
8.BB-/L
16GG/Jk
=9
8BB-/L
8BB-/J
8.BB-/L
16BB-/Jk
=10
2E-\
=11
4.E-\
8E-\
=12
8C/L
8C/J
4C/
=13
4.r
8C/
=14||
*M3/4
16E-\LK
8.E-\J
16E-\LK
8.E-\J
16C/LL
16C/J
8C;/J
=15||
*M2/4
8G\L
16G\L
16F\JJ
8G\L
16G\L
16F\JJ
=16
8C/L
8C/J
8C/L
8C/J
=17||
*M5/8
8BB-/L
8BB-/
8BB-/
8GG/
8GG/J
=18||
*M6/8
4BB-/
8GG/
8GG/L
8GG/J
8r
=19||
*M3/4
2E-\
4F\
=20
*M2/4
4E-\
8.D-/L
16BB-/Jk
=21
4BB-/
4BB-/
==
*-
